icons/mimetypes/64/application-x-kdenlivetitle.svg

<svg width="64" xmlns="http://www.w3.org/2000/svg" viewBox="0 0 64 64" height="64">
 <defs>
  <linearGradient id="a" y1="61" y2="3" x2="0" gradientUnits="userSpaceOnUse" gradientTransform="matrix(1.31818 0 0 .75862-10.182 7.724)">
   <stop stop-color="#6c7a89"/>
   <stop offset="1" stop-color="#768492"/>
  </linearGradient>
  <linearGradient id="b" y1="54" x1="3" y2="10" x2="61" gradientUnits="userSpaceOnUse">
   <stop stop-color="#383e51"/>
   <stop offset="1" stop-color="#655c6f" stop-opacity="0"/>
  </linearGradient>
  <linearGradient id="c" y1="54" y2="10" x2="0" gradientUnits="userSpaceOnUse">
   <stop stop-color="#dedede"/>
   <stop offset="1" stop-color="#ececec"/>
  </linearGradient>
 </defs>
 <path fill="url(#a)" d="m3 10v44h58v-44h-18.455z"/>
 <rect width="58" x="3" y="53" fill="#2e3132" height="1" fill-opacity=".294"/>
 <rect width="58" x="3" y="10" fill="#ffffff" height="1" fill-opacity=".41"/>
 <path fill="#ececec" d="M32 21A11 11 0 0 0 21 32 11 11 0 0 0 32 43 11 11 0 0 0 43 32 11 11 0 0 0 32 21m.144531.951172a10 10 0 0 1 10 10 10 10 0 0 1 -10 10 10 10 0 0 1 -10 -10 10 10 0 0 1 10 -10"/>
 <g fill-rule="evenodd">
  <path fill="#edeef8" d="m38 31.462l-10 7.538v-14z"/>
  <path fill="url(#b)" d="m57 54l-2-2 2-4-2-2 2-4-2-2 2-4-2-2 2-4-2-2 2-4-2-2 2-4-2-2 4-4 2 2v40z"/>
 </g>
 <path fill="url(#c)" d="m5 12v4h4v-4zm50 0v4h4v-4zm-50 6v4h4v-4zm50 0v4h4v-4zm-50 6v4h4v-4zm50 0v4h4v-4zm-50 6v4h4v-4zm50 0v4h4v-4zm-50 6v4h4v-4zm50 0v4h4v-4zm-50 6v4h4v-4zm50 0v4h4v-4zm-50 6v4h4v-4zm50 0v4h4v-4z"/>
</svg>

<?xml version="1.0" encoding="UTF-8" standalone="no"?>
<svg
   xmlns:dc="http://purl.org/dc/elements/1.1/"
   xmlns:cc="http://creativecommons.org/ns#"
   xmlns:rdf="http://www.w3.org/1999/02/22-rdf-syntax-ns#"
   xmlns:svg="http://www.w3.org/2000/svg"
   xmlns="http://www.w3.org/2000/svg"
   xmlns:xlink="http://www.w3.org/1999/xlink"
   xmlns:sodipodi="http://sodipodi.sourceforge.net/DTD/sodipodi-0.dtd"
   xmlns:inkscape="http://www.inkscape.org/namespaces/inkscape"
   width="64"
   version="1.1"
   viewBox="0 0 64 64"
   height="64"
   id="svg2"
   inkscape:version="0.91 r13725"
   sodipodi:docname="application-x-kdenlivetitle.svg">
  <sodipodi:namedview
     pagecolor="#ffffff"
     bordercolor="#666666"
     borderopacity="1"
     objecttolerance="10"
     gridtolerance="10"
     guidetolerance="10"
     inkscape:pageopacity="0"
     inkscape:pageshadow="2"
     inkscape:window-width="1920"
     inkscape:window-height="1013"
     id="namedview36"
     showgrid="false"
     inkscape:zoom="3.6875"
     inkscape:cx="-17.355932"
     inkscape:cy="29.830508"
     inkscape:window-x="0"
     inkscape:window-y="0"
     inkscape:window-maximized="1"
     inkscape:current-layer="svg2" />
  <defs
     id="defs4">
    <linearGradient
       inkscape:collect="always"
       id="linearGradient4410">
      <stop
         style="stop-color:#383e51"
         id="stop4412" />
      <stop
         offset="1"
         style="stop-color:#655c6f;stop-opacity:0"
         id="stop4414" />
    </linearGradient>
    <linearGradient
       inkscape:collect="always"
       id="linearGradient4351-8">
      <stop
         style="stop-color:#dedede"
         id="stop4353-5" />
      <stop
         offset="1"
         style="stop-color:#ececec"
         id="stop4355-8" />
    </linearGradient>
    <linearGradient
       inkscape:collect="always"
       id="linearGradient4300-7">
      <stop
         style="stop-color:#6c7a89"
         id="stop4302-2" />
      <stop
         offset="1"
         style="stop-color:#768492"
         id="stop4304-4" />
    </linearGradient>
    <linearGradient
       inkscape:collect="always"
       xlink:href="#linearGradient4300-7"
       id="linearGradient4306-3"
       y1="61"
       y2="3"
       x2="0"
       gradientUnits="userSpaceOnUse"
       gradientTransform="matrix(1.3181818,0,0,0.75862068,-10.181818,7.7241384)" />
    <linearGradient
       inkscape:collect="always"
       xlink:href="#linearGradient4410"
       id="linearGradient4428"
       x1="3"
       y1="54"
       x2="61"
       y2="10"
       gradientUnits="userSpaceOnUse" />
    <linearGradient
       inkscape:collect="always"
       xlink:href="#linearGradient4351-8"
       id="linearGradient4391"
       x1="58"
       y1="54"
       x2="58"
       y2="10"
       gradientUnits="userSpaceOnUse" />
  </defs>
  <metadata
     id="metadata84">
    <rdf:RDF>
      <cc:Work
         rdf:about="">
        <dc:format>image/svg+xml</dc:format>
        <dc:type
           rdf:resource="http://purl.org/dc/dcmitype/StillImage" />
      </cc:Work>
    </rdf:RDF>
  </metadata>
  <path
     style="fill:url(#linearGradient4306-3);fill-opacity:1.0"
     id="rect3500-5"
     d="M 3,10 3,54 47,54 61,54 61,20.62069 61,10 42.545454,10 Z"
     inkscape:connector-curvature="0"
     sodipodi:nodetypes="cccccccc" />
  <rect
     width="58"
     x="3"
     y="53"
     height="1"
     style="fill:#2e3132;fill-opacity:0.29411801"
     id="rect4169-3" />
  <rect
     width="58"
     x="3"
     y="10"
     height="1"
     style="fill:#ffffff;fill-opacity:0.40983599"
     id="rect4236-5" />
  <path
     inkscape:connector-curvature="0"
     style="fill:#ececec;fill-opacity:1;stroke:none;stroke-width:2;stroke-miterlimit:4;stroke-dasharray:none;stroke-opacity:1"
     d="M 32,21 A 11,11 0 0 0 21,32 11,11 0 0 0 32,43 11,11 0 0 0 43,32 11,11 0 0 0 32,21 Z m 0.144531,0.951172 a 10,10 0 0 1 10,10 10,10 0 0 1 -10,10 10,10 0 0 1 -10,-10 10,10 0 0 1 10,-10 z"
     id="path4245" />
  <path
     style="fill:#edeef8;fill-opacity:1;fill-rule:evenodd;stroke:none;stroke-width:1px;stroke-linecap:butt;stroke-linejoin:miter;stroke-opacity:1"
     d="M 38,31.461538 28,39 28,25 Z"
     id="path4250"
     inkscape:connector-curvature="0" />
  <path
     style="fill:url(#linearGradient4428);fill-opacity:1;fill-rule:evenodd;stroke:none;stroke-width:1px;stroke-linecap:butt;stroke-linejoin:miter;stroke-opacity:1"
     d="m 57,54 -2,-2 2,-4 -2,-2 2,-4 -2,-2 2,-4 -2,-2 2,-4 -2,-2 2,-4 -2,-2 2,-4 -2,-2 4,-4 2,2 0,40 z"
     id="path4417"
     inkscape:connector-curvature="0"
     sodipodi:nodetypes="cccccccccccccccccc" />
  <path
     style="fill:url(#linearGradient4391);fill-opacity:1.0;stroke:none;stroke-width:2;stroke-miterlimit:4;stroke-dasharray:none;stroke-opacity:1"
     d="M 5 12 L 5 16 L 9 16 L 9 12 L 5 12 z M 55 12 L 55 16 L 59 16 L 59 12 L 55 12 z M 5 18 L 5 22 L 9 22 L 9 18 L 5 18 z M 55 18 L 55 22 L 59 22 L 59 18 L 55 18 z M 5 24 L 5 28 L 9 28 L 9 24 L 5 24 z M 55 24 L 55 28 L 59 28 L 59 24 L 55 24 z M 5 30 L 5 34 L 9 34 L 9 30 L 5 30 z M 55 30 L 55 34 L 59 34 L 59 30 L 55 30 z M 5 36 L 5 40 L 9 40 L 9 36 L 5 36 z M 55 36 L 55 40 L 59 40 L 59 36 L 55 36 z M 5 42 L 5 46 L 9 46 L 9 42 L 5 42 z M 55 42 L 55 46 L 59 46 L 59 42 L 55 42 z M 5 48 L 5 52 L 9 52 L 9 48 L 5 48 z M 55 48 L 55 52 L 59 52 L 59 48 L 55 48 z "
     id="rect4159" />
</svg>
